source/images/project/subtitle-editor/logo.svg

<svg fill="none" height="66" viewBox="0 0 336 66" width="336" xmlns="http://www.w3.org/2000/svg" xmlns:xlink="http://www.w3.org/1999/xlink"><clipPath id="a"><path d="m0 0h336v66h-336z"/></clipPath><g clip-path="url(#a)"><path d="m23.959 53.752c0-1.544-.546-2.748-1.639-3.611-1.091-.863-3.011-1.756-5.756-2.678-2.746-.923-4.989-1.815-6.734-2.678-5.671-2.788-8.507-6.62-8.507-11.495 0-2.426.707-4.568 2.12-6.424 1.412-1.856 3.411-3.3 5.997-4.333 2.585-1.033 5.491-1.55 8.718-1.55 3.145 0 5.967.563 8.462 1.686 2.495 1.124 4.434 2.723 5.816 4.799 1.383 2.076 2.075 4.449 2.075 7.116h-10.523c0-1.785-.546-3.169-1.638-4.152-1.093-.983-2.57-1.475-4.434-1.475-1.883 0-3.371.417-4.464 1.249s-1.639 1.891-1.639 3.175c0 1.124.602 2.141 1.804 3.054s3.316 1.855 6.342 2.828c3.026.974 5.511 2.021 7.455 3.144 4.729 2.729 7.094 6.49 7.094 11.284 0 3.831-1.443 6.84-4.328 9.027-2.887 2.187-6.844 3.28-11.874 3.28-3.547 0-6.758-.636-9.633-1.911-2.876-1.274-5.04-3.019-6.493-5.236-1.453-2.216-2.18-4.769-2.18-7.658h10.581c0 2.347.606 4.078 1.818 5.19 1.212 1.114 3.182 1.671 5.906 1.671 1.744 0 3.121-.376 4.134-1.128 1.013-.751 1.52-1.809 1.52-3.174zm15.235-34.573h10.16v46.218h-10.16zm15.077 5.236c0-1.454.521-2.643 1.563-3.573 1.042-.928 2.395-1.392 4.058-1.392s3.016.464 4.058 1.392c1.043.93 1.563 2.12 1.563 3.573s-.521 2.643-1.563 3.572-2.394 1.393-4.058 1.393c-1.663 0-3.016-.463-4.058-1.393-1.042-.929-1.563-2.119-1.563-3.572zm10.762 40.983h-10.16v-32.558h10.16zm3.839-16.52c0-5.155 1.113-9.217 3.337-12.186s5.33-4.453 9.318-4.453c2.905 0 5.35 1.144 7.334 3.431v-16.491h10.16v46.219h-9.108l-.511-3.491c-2.084 2.728-4.729 4.092-7.936 4.092-3.867 0-6.934-1.485-9.199-4.454-2.263-2.968-3.395-7.191-3.395-12.667zm10.131.631c0 5.778 1.684 8.667 5.05 8.667 2.244 0 3.847-.943 4.809-2.83v-12.395c-.922-1.926-2.505-2.889-4.749-2.889-3.127 0-4.821 2.527-5.081 7.582zm40.496 16.49c-4.989 0-9.028-1.49-12.114-4.469s-4.629-6.855-4.629-11.629v-.842c0-3.33.616-6.269 1.85-8.817 1.232-2.547 3.031-4.518 5.395-5.912s5.171-2.091 8.417-2.091c4.569 0 8.176 1.42 10.822 4.258 2.645 2.839 3.968 6.796 3.968 11.87v3.942h-20.14c.36 1.826 1.152 3.26 2.374 4.303 1.223 1.043 2.806 1.565 4.75 1.565 3.205 0 5.711-1.124 7.515-3.371l4.628 5.477c-1.262 1.745-3.051 3.135-5.365 4.167-2.315 1.033-4.806 1.549-7.471 1.549zm-1.143-25.937c-2.966 0-4.729 1.966-5.29 5.897h10.22v-.782c.04-1.626-.371-2.884-1.232-3.777-.862-.892-2.094-1.338-3.698-1.338zm35.01 16.188c0-.863-.451-1.555-1.352-2.076-.902-.522-2.616-1.063-5.141-1.626-2.525-.561-4.61-1.298-6.252-2.211-1.643-.913-2.896-2.021-3.758-3.325s-1.292-2.799-1.292-4.484c0-2.989 1.232-5.451 3.697-7.387 2.466-1.936 5.692-2.903 9.68-2.903 4.289 0 7.736.973 10.34 2.918 2.605 1.946 3.909 4.504 3.909 7.674h-10.16c0-2.608-1.373-3.911-4.118-3.911-1.063 0-1.954.295-2.675.887-.722.592-1.082 1.329-1.082 2.212 0 .903.44 1.635 1.322 2.196.881.563 2.289 1.023 4.223 1.385 1.934.361 3.632.792 5.094 1.294 4.89 1.685 7.336 4.704 7.336 9.057 0 2.969-1.319 5.387-3.953 7.252-2.636 1.865-6.047 2.798-10.236 2.798-2.786 0-5.27-.502-7.455-1.505-2.185-1.002-3.888-2.366-5.11-4.091s-1.833-3.54-1.833-5.446h9.468c.04 1.503.541 2.602 1.503 3.295.962.691 2.195 1.038 3.698 1.038 1.382 0 2.419-.281 3.11-.843.692-.563 1.037-1.295 1.037-2.198zm24.954 1.023h18.368v8.124h-28.918v-43.811h10.55zm20.847-32.858c0-1.454.521-2.643 1.563-3.573 1.041-.928 2.393-1.392 4.057-1.392 1.663 0 3.015.464 4.058 1.392 1.041.93 1.562 2.12 1.562 3.573s-.521 2.643-1.562 3.572c-1.043.929-2.395 1.393-4.058 1.393-1.664 0-3.017-.463-4.057-1.393-1.042-.929-1.563-2.119-1.563-3.572zm10.761 40.983h-10.161v-32.558h10.161zm18.125-12.067 5.14-20.49h10.67l-10.612 32.557h-10.339l-10.612-32.557h10.702zm32.242 12.668c-4.991 0-9.029-1.49-12.114-4.469-3.087-2.979-4.63-6.855-4.63-11.629v-.842c0-3.33.616-6.269 1.848-8.817 1.233-2.547 3.032-4.518 5.396-5.912 2.365-1.394 5.171-2.091 8.418-2.091 4.568 0 8.175 1.42 10.821 4.258 2.646 2.839 3.969 6.796 3.969 11.87v3.942h-20.141c.361 1.826 1.152 3.26 2.375 4.303s2.806 1.565 4.75 1.565c3.206 0 5.712-1.124 7.515-3.371l4.629 5.477c-1.263 1.745-3.052 3.135-5.366 4.167-2.315 1.033-4.805 1.549-7.47 1.549zm-1.143-25.937c-2.966 0-4.73 1.966-5.291 5.897h10.22v-.782c.04-1.626-.37-2.884-1.232-3.777-.862-.892-2.094-1.338-3.697-1.338zm42.584-28.087h-2.092v5.674h-3.863v-16.04205h6.306c1.9 0 3.387.423 4.458 1.266 1.071.844 1.607 2.036 1.607 3.577 0 1.116-.227 2.04-.678 2.773-.45.733-1.157 1.32805-2.118 1.78205l3.347 6.477v.166h-4.139zm-2.091-2.97505h2.443c.733 0 1.286-.193 1.657-.579.37-.387.555-.926.555-1.619 0-.692-.187-1.235-.561-1.629s-.925-.591-1.651-.591h-2.443zm20.695 1.84005h-6.076v3.834h7.176v2.975h-11.039v-16.04205h11.061v2.986h-7.199v3.383h6.076v2.86405zm15.626 1.377c-.052 1.117-.352 2.102-.902 2.958-.55.855-1.322 1.519-2.316 1.989-.995.471-2.13.705-3.407.705-2.104 0-3.764-.687-4.974-2.061-1.21-1.373-1.816-3.311-1.816-5.81605v-.793c0-1.572.274-2.947.82-4.126.547-1.179 1.334-2.09 2.361-2.732 1.026-.643 2.215-.964 3.565-.964 1.945 0 3.508.512 4.688 1.537 1.182 1.024 1.853 2.437 2.015 4.236h-3.852c-.028-.976-.275-1.678-.737-2.104s-1.166-.638-2.113-.638c-.961 0-1.665.359-2.112 1.08-.448.719-.683 1.869-.705 3.448v1.13505c0 1.711.215 2.934.644 3.668.43.735 1.168 1.102 2.218 1.102.889 0 1.566-.209 2.036-.627s.72-1.083.749-1.994h3.838z" fill="#000"/><path d="m275.998 19.204c5.298 0 9.592-4.299 9.592-9.602 0-5.30304-4.294-9.602-9.592-9.602s-9.592 4.29896-9.592 9.602c0 5.303 4.294 9.602 9.592 9.602z" fill="#dc1e30"/></g></svg>

<svg width="336" height="66" viewBox="0 0 336 66" fill="none" xmlns="http://www.w3.org/2000/svg">
<g clip-path="url(#clip0)">
<path d="M23.959 53.752C23.959 52.208 23.413 51.004 22.32 50.141C21.229 49.278 19.309 48.385 16.564 47.463C13.818 46.54 11.575 45.648 9.83 44.785C4.159 41.997 1.323 38.165 1.323 33.29C1.323 30.864 2.03 28.722 3.443 26.866C4.855 25.01 6.854 23.566 9.44 22.533C12.025 21.5 14.931 20.983 18.158 20.983C21.303 20.983 24.125 21.546 26.62 22.669C29.115 23.793 31.054 25.392 32.436 27.468C33.819 29.544 34.511 31.917 34.511 34.584H23.988C23.988 32.799 23.442 31.415 22.35 30.432C21.257 29.449 19.78 28.957 17.916 28.957C16.033 28.957 14.545 29.374 13.452 30.206C12.359 31.038 11.813 32.097 11.813 33.381C11.813 34.505 12.415 35.522 13.617 36.435C14.819 37.348 16.933 38.29 19.959 39.263C22.985 40.237 25.47 41.284 27.414 42.407C32.143 45.136 34.508 48.897 34.508 53.691C34.508 57.522 33.065 60.531 30.18 62.718C27.293 64.905 23.336 65.998 18.306 65.998C14.759 65.998 11.548 65.362 8.673 64.087C5.797 62.813 3.633 61.068 2.18 58.851C0.727 56.635 0 54.082 0 51.193H10.581C10.581 53.54 11.187 55.271 12.399 56.383C13.611 57.497 15.581 58.054 18.305 58.054C20.049 58.054 21.426 57.678 22.439 56.926C23.452 56.175 23.959 55.117 23.959 53.752V53.752ZM39.194 19.179H49.354V65.397H39.194V19.179ZM54.271 24.415C54.271 22.961 54.792 21.772 55.834 20.842C56.876 19.914 58.229 19.45 59.892 19.45C61.555 19.45 62.908 19.914 63.95 20.842C64.993 21.772 65.513 22.962 65.513 24.415C65.513 25.868 64.992 27.058 63.95 27.987C62.908 28.916 61.556 29.38 59.892 29.38C58.229 29.38 56.876 28.917 55.834 27.987C54.792 27.058 54.271 25.868 54.271 24.415ZM65.033 65.398H54.873V32.84H65.033V65.398ZM68.872 48.878C68.872 43.723 69.985 39.661 72.209 36.692C74.433 33.723 77.539 32.239 81.527 32.239C84.432 32.239 86.877 33.383 88.861 35.67V19.179H99.021V65.398H89.913L89.402 61.907C87.318 64.635 84.673 65.999 81.466 65.999C77.599 65.999 74.532 64.514 72.267 61.545C70.004 58.577 68.872 54.354 68.872 48.878V48.878ZM79.003 49.509C79.003 55.287 80.687 58.176 84.053 58.176C86.297 58.176 87.9 57.233 88.862 55.346V42.951C87.94 41.025 86.357 40.062 84.113 40.062C80.986 40.062 79.292 42.589 79.032 47.644L79.003 49.509ZM119.499 65.999C114.51 65.999 110.471 64.509 107.385 61.53C104.299 58.551 102.756 54.675 102.756 49.901V49.059C102.756 45.729 103.372 42.79 104.606 40.242C105.838 37.695 107.637 35.724 110.001 34.33C112.365 32.936 115.172 32.239 118.418 32.239C122.987 32.239 126.594 33.659 129.24 36.497C131.885 39.336 133.208 43.293 133.208 48.367V52.309H113.068C113.428 54.135 114.22 55.569 115.442 56.612C116.665 57.655 118.248 58.177 120.192 58.177C123.397 58.177 125.903 57.053 127.707 54.806L132.335 60.283C131.073 62.028 129.284 63.418 126.97 64.45C124.655 65.483 122.164 65.999 119.499 65.999V65.999ZM118.356 40.062C115.39 40.062 113.627 42.028 113.066 45.959H123.286V45.177C123.326 43.551 122.915 42.293 122.054 41.4C121.192 40.508 119.96 40.062 118.356 40.062V40.062ZM153.366 56.25C153.366 55.387 152.915 54.695 152.014 54.174C151.112 53.652 149.398 53.111 146.873 52.548C144.348 51.987 142.263 51.25 140.621 50.337C138.978 49.424 137.725 48.316 136.863 47.012C136.001 45.708 135.571 44.213 135.571 42.528C135.571 39.539 136.803 37.077 139.268 35.141C141.734 33.205 144.96 32.238 148.948 32.238C153.237 32.238 156.684 33.211 159.288 35.156C161.893 37.102 163.197 39.66 163.197 42.83H153.037C153.037 40.222 151.664 38.919 148.919 38.919C147.856 38.919 146.965 39.214 146.244 39.806C145.522 40.398 145.162 41.135 145.162 42.018C145.162 42.921 145.602 43.653 146.484 44.214C147.365 44.777 148.773 45.237 150.707 45.599C152.641 45.96 154.339 46.391 155.801 46.893C160.691 48.578 163.137 51.597 163.137 55.95C163.137 58.919 161.818 61.337 159.184 63.202C156.548 65.067 153.137 66 148.948 66C146.162 66 143.678 65.498 141.493 64.495C139.308 63.493 137.605 62.129 136.383 60.404C135.161 58.679 134.55 56.864 134.55 54.958H144.018C144.058 56.461 144.559 57.56 145.521 58.253C146.483 58.944 147.716 59.291 149.219 59.291C150.601 59.291 151.638 59.01 152.329 58.448C153.021 57.885 153.366 57.153 153.366 56.25V56.25ZM178.32 57.273H196.688V65.397H167.77V21.586H178.32V57.273V57.273ZM199.167 24.415C199.167 22.961 199.688 21.772 200.73 20.842C201.771 19.914 203.123 19.45 204.787 19.45C206.45 19.45 207.802 19.914 208.845 20.842C209.886 21.772 210.407 22.962 210.407 24.415C210.407 25.868 209.886 27.058 208.845 27.987C207.802 28.916 206.45 29.38 204.787 29.38C203.123 29.38 201.77 28.917 200.73 27.987C199.688 27.058 199.167 25.868 199.167 24.415ZM209.928 65.398H199.767V32.84H209.928V65.398ZM228.053 53.331L233.193 32.841H243.863L233.251 65.398H222.912L212.3 32.841H223.002L228.053 53.331ZM260.295 65.999C255.304 65.999 251.266 64.509 248.181 61.53C245.094 58.551 243.551 54.675 243.551 49.901V49.059C243.551 45.729 244.167 42.79 245.399 40.242C246.632 37.695 248.431 35.724 250.795 34.33C253.16 32.936 255.966 32.239 259.213 32.239C263.781 32.239 267.388 33.659 270.034 36.497C272.68 39.336 274.003 43.293 274.003 48.367V52.309H253.862C254.223 54.135 255.014 55.569 256.237 56.612C257.46 57.655 259.043 58.177 260.987 58.177C264.193 58.177 266.699 57.053 268.502 54.806L273.131 60.283C271.868 62.028 270.079 63.418 267.765 64.45C265.45 65.483 262.96 65.999 260.295 65.999V65.999ZM259.152 40.062C256.186 40.062 254.422 42.028 253.861 45.959H264.081V45.177C264.121 43.551 263.711 42.293 262.849 41.4C261.987 40.508 260.755 40.062 259.152 40.062V40.062ZM301.736 11.975H299.644V17.649H295.781V1.60695H302.087C303.987 1.60695 305.474 2.02995 306.545 2.87295C307.616 3.71695 308.152 4.90895 308.152 6.44995C308.152 7.56595 307.925 8.48995 307.474 9.22295C307.024 9.95595 306.317 10.551 305.356 11.005L308.703 17.482V17.648H304.564L301.736 11.975V11.975ZM299.645 8.99995H302.088C302.821 8.99995 303.374 8.80695 303.745 8.42095C304.115 8.03395 304.3 7.49495 304.3 6.80195C304.3 6.10995 304.113 5.56695 303.739 5.17295C303.365 4.77895 302.814 4.58195 302.088 4.58195H299.645V8.99995ZM320.34 10.84H314.264V14.674H321.44V17.649H310.401V1.60695H321.462V4.59295H314.263V7.97595H320.339V10.84H320.34V10.84ZM335.966 12.217C335.914 13.334 335.614 14.319 335.064 15.175C334.514 16.03 333.742 16.694 332.748 17.164C331.753 17.635 330.618 17.869 329.341 17.869C327.237 17.869 325.577 17.182 324.367 15.808C323.157 14.435 322.551 12.497 322.551 9.99195V9.19895C322.551 7.62695 322.825 6.25195 323.371 5.07295C323.918 3.89395 324.705 2.98295 325.732 2.34095C326.758 1.69795 327.947 1.37695 329.297 1.37695C331.242 1.37695 332.805 1.88895 333.985 2.91395C335.167 3.93795 335.838 5.35095 336 7.14995H332.148C332.12 6.17395 331.873 5.47195 331.411 5.04595C330.949 4.61995 330.245 4.40795 329.298 4.40795C328.337 4.40795 327.633 4.76695 327.186 5.48795C326.738 6.20695 326.503 7.35695 326.481 8.93595V10.071C326.481 11.782 326.696 13.005 327.125 13.739C327.555 14.474 328.293 14.841 329.343 14.841C330.232 14.841 330.909 14.632 331.379 14.214C331.849 13.796 332.099 13.131 332.128 12.22H335.966V12.217V12.217Z" fill="black"/>
<path d="M275.998 19.204C281.296 19.204 285.59 14.905 285.59 9.602C285.59 4.29896 281.296 0 275.998 0C270.7 0 266.406 4.29896 266.406 9.602C266.406 14.905 270.7 19.204 275.998 19.204Z" fill="#DC1E30"/>
</g>
<defs>
<clipPath id="clip0">
<rect width="336" height="66" fill="white"/>
</clipPath>
</defs>
</svg>
